X: 4
T: Schottis Från Norrbotten
R: barndance
M: 4/4
L: 1/8
K: Emin
|:B,2|E2 EF|G2 GA|B2 Bc|B4|e2 ef|g2 f2|e4|B2ef|g2f2|e2Bc|d2c2|
B2GA|Bc BA|G2A2|(B4|B2)ef|g2f2|e2Bc|d2c2|B2GA|Bc BA|G2F2|(E4|E2):|
|:B2|BG EG|BG EG|B2e2|d2c2|Bc BA|G2A2|(B4|B4)|
BG EG|BG EG|B2e2|d2c2|Bc BA|G2F2|(E4|E2):|
|:ef|g2f2|e2Bc|d2c2|B2GA|Bc BA|G2A2|(B4|B2)ef|
g2f2|e2Bc|d2c2|B2GA|Bc BA|G2F2|(E4|E2):|

